client/assets/img/icon-menu.svg

<?xml version="1.0" encoding="UTF-8" standalone="no"?>
<svg width="15px" height="13px" viewBox="0 0 15 13" version="1.1" xmlns="http://www.w3.org/2000/svg" xmlns:xlink="http://www.w3.org/1999/xlink" xmlns:sketch="http://www.bohemiancoding.com/sketch/ns">
    <!-- Generator: Sketch 3.4.4 (17249) - http://www.bohemiancoding.com/sketch -->
    <title>Untitled 2</title>
    <desc>Created with Sketch.</desc>
    <defs></defs>
    <g id="Page-1" stroke="none" stroke-width="1" fill="none" fill-rule="evenodd" sketch:type="MSPage">
        <g id="icon-menu" sketch:type="MSLayerGroup" fill="#000000">
            <path d="M14.2915716,7.99721082 L0.78097295,7.99721082 C0.429539435,7.99721082 0.214777731,7.88332204 0.136681395,7.65554105 C0.0585850584,7.42776007 0.0260454063,7.12514131 0.0390614623,6.74767568 C0.0260454063,6.37021006 0.0585850584,6.06759129 0.136681395,5.83981031 C0.214777731,5.61202933 0.429539435,5.49814055 0.78097295,5.49814055 L14.2915716,5.49814055 C14.6430051,5.49814055 14.8577668,5.61202933 14.9358632,5.83981031 C15.0139595,6.06759129 15.0464992,6.37021006 15.0334831,6.74767568 C15.0464992,7.12514131 15.0139595,7.42776007 14.9358632,7.65554105 C14.8577668,7.88332204 14.6430051,7.99721082 14.2915716,7.99721082 L14.2915716,7.99721082 Z M14.2915716,2.99907027 L0.78097295,2.99907027 C0.429539435,2.99907027 0.214777731,2.88518149 0.136681395,2.65740051 C0.0585850584,2.42961953 0.0260454063,2.12700076 0.0390614623,1.74953514 C0.0260454063,1.37206951 0.0585850584,1.06945075 0.136681395,0.841669764 C0.214777731,0.613888782 0.429539435,0.5 0.78097295,0.5 L14.2915716,0.5 C14.6430051,0.5 14.8577668,0.613888782 14.9358632,0.841669764 C15.0139595,1.06945075 15.0464992,1.37206951 15.0334831,1.74953514 C15.0464992,2.12700076 15.0139595,2.42961953 14.9358632,2.65740051 C14.8577668,2.88518149 14.6430051,2.99907027 14.2915716,2.99907027 L14.2915716,2.99907027 Z M0.78097295,10.4962811 L14.2915716,10.4962811 C14.6430051,10.4962811 14.8577668,10.6101699 14.9358632,10.8379509 C15.0139595,11.0657318 15.0464992,11.3683506 15.0334831,11.7458162 C15.0464992,12.1232819 15.0139595,12.4259006 14.9358632,12.6536816 C14.8577668,12.8814626 14.6430051,12.9953514 14.2915716,12.9953514 L0.78097295,12.9953514 C0.429539435,12.9953514 0.214777731,12.8814626 0.136681395,12.6536816 C0.0585850584,12.4259006 0.0260454063,12.1232819 0.0390614623,11.7458162 C0.0260454063,11.3683506 0.0585850584,11.0657318 0.136681395,10.8379509 C0.214777731,10.6101699 0.429539435,10.4962811 0.78097295,10.4962811 L0.78097295,10.4962811 Z" id="" sketch:type="MSShapeGroup"></path>
        </g>
    </g>
</svg>

<svg width="15" height="13" viewBox="0 0 15 13" xmlns="http://www.w3.org/2000/svg"><title>Untitled 2</title><path d="M14.292 7.997H.782c-.352 0-.567-.114-.645-.34-.078-.23-.11-.532-.098-.91-.014-.377.02-.68.097-.907.078-.228.293-.342.644-.342h13.512c.35 0 .566.114.644.342.078.228.11.53.097.908.013.377-.02.68-.097.908-.078.227-.293.34-.644.34zm0-4.998H.782C.43 3 .214 2.884.136 2.656.06 2.43.027 2.127.04 1.75c-.014-.378.02-.68.097-.908C.215.614.43.5.78.5h13.512c.35 0 .566.114.644.342.078.227.11.53.097.908.013.377-.02.68-.097.907-.078.228-.293.342-.644.342zM.782 10.495h13.51c.35 0 .566.114.644.342.078.228.11.53.097.908.013.377-.02.68-.097.908-.078.227-.293.34-.644.34H.782c-.352 0-.567-.113-.645-.34-.078-.228-.11-.53-.098-.908-.014-.378.02-.68.097-.908.078-.228.293-.342.644-.342z" fill="#000" fill-rule="evenodd"/></svg>
